X:1
T:Funky Dog
T:American Funk
T:Sean Barrett Jr
C:Sean Barrett Jr
Z:All Rights Reserved
L:1/8
Q:1/4=95
M:4/4
K:C
V:1 treble nm="Flute" snm="Fl"
%%MIDI program 73
V:1
 F3 _E F/E/F_AF- | F z z2 ffcB | _B/B_A-A/G/F z/ z z2 | dc/B/ B/ z/ z _EF/F/ z2 | %4
 _AA z/ c/_e/f-f/_a a2- | a2 z2 z4 | F/_E/F z2 _B/_A/B z2 | F/_E/F z2 _B/_A/B z2 | %8
 B/_B/_AG/F/_E F4 | z2 c_e/-e/ z EFF | z8 |] %11

